X:1
T:Poi che sei cosi
T:Poi che sei cosi
T:anonymous
T:Source : Secondo libro delle villanelle a 3 voci---Venetia---Figlio d'A.Gardano---1574. Editor : André Vierendeels (01/05/16).
T:Notes : Original clefs : C1, C2, C4 Editorial accidentals above the staff Music by composers from Bari, collected by G.de Antiquis
T:©
T:©
T:©
C:anonymous
Z:©
%%score [ 1 2 3 ]
L:1/8
Q:1/4=90
M:4/4
K:C
V:1 treble nm="Soprano" snm="S"
V:2 treble nm="Alto" snm="A"
V:3 treble-8 nm="Tenor" snm="T"
V:1
 F4 E4- | E2 A2 G2 G2 | A6 G2 | F2 E2 F4 |[M:2/4] E4 :: E2 D2 |[M:3/4] C2 D2 A2 | %7
w: 1)Poi che|* sei co- si|for- te|scro- pu- lo-|sa,|1)non li|do- ve, non|
w: 2)La pri-|* ma vol- ta'e|du- ra'e|fa- ti- go-|sa,|2)ch'o- gni|prin- ci- pio,|
w: 3)La se-|* con- da sa-|ra man-|co no- io-|sa,|3)la ter-|za poi, la|
w: 4)Ma la|* quar- ta sa-|ra tan-|ta gu- sto-|sa,|4)che da|* te, che|
w: 5)Stà dun-|* que sal- d'all'|a- mo-|ro- sa'im- pre-|sa,|5)e do-|* po, e|
[M:4/4] G2 F2 E2 D2 | z2 d2 c2 B2 | A2 A2 c3 c | B2 A2 B4 | A8 | z2 c2 A4 | _B4 A4 | z2 c2 B2 A2 | %15
w: li do- ve- ni,|non li do-|ve- ni pre- sto|1)ma- ri- ta-|re,|sta fi-|glia sta,|sta fi- glia|
w: prin- ci- * pio,|ch'o- gni prin-|ci- pio'as- sai dif-|2)fi- cil pa-|re,|sta fi-|glia sta,|sta fi- glia|
w: ter- za po- i,|la ter- za|poi co- min- ci'a|3)di- let- ta-|re,|sta fi-|glia sta,|sta fi- glia|
w: da- te stes- sa,|che da- te|stes- sa la vo-|4)rai pro- va-|re,|sta fi-|glia sta,|sta fi- glia|
w: do- po que- sto,|e do- po|que- sto'a- mar il|5)dol- ce'as- pet-|ta,|sta fi-|glia sta,|sta fi- glia|
 c4 z2 c2 | B4 A4 | c2 A2 G2 G2 | A2 F2 E2 F2 | G2 D2 E4 | D8 :| %21
w: 1)sta, sta|fi- glia|sta, sta fi- glia|sta che ti bi-|so- gna sta-|re.|
w: 2)sta, sta|fi- glia|sta, sta fi- glia|sta che ti bi-|so- gna sta-|re.|
w: 3)sta, sta|fi- glia|sta, sta fi- glia|sta che ti bi-|so- gna sta-|re.|
w: 4)sta, sta|fi- glia|sta, sta fi- glia|sta che ti bi-|so- gna sta-|re.|
w: 5)sta, sta|fi- glia|sta, sta fi- glia|sta che sei be-|ne- det- *|ta|
V:2
 D4 C4- | C2 F2 E2 E2 | F6 E2 | D2 ^C2 D4 |[M:2/4] ^C4 :: ^C2 B,2 |[M:3/4] A,2 B,2 A,2 | %7
w: 1)Poi che|* sei co- si|for- te|scro- pu- lo-|sa,|1)non li|do- * ve,|
w: 2)La pri-|* ma vol- ta'e|du- ra'e|fa- ti- go-|sa,|2)ch'o- gni|prin- ci- pio|
w: |||||||
w: 3)La se-|* con- da sa-|ra man-|co no- io-|sa,|3) la|ter- za poi,|
[M:4/4] z2 A2 G2 F2 | E2 D2 E2 G2 | F4 E2 A2 | ^G2 A4 G2 | A4 z2 A2- | A2 G4 ^F2 | G2 D2 F2 D2 | %14
w: non li do-|ve- ni, do- ve-|ni, pre- sto|1)ma- ri- ta-|re, sta|* fi- glia|sta, sta fi- glia|
w: ch'o- gni prin-|ci- pio, prin- ci-|pio'as- sai dif-|2)fi- cil pa-|re; sta|* fi- glia|sta, sta fi- glia|
w: |||||||
w: la ter- za|poi, ter- za poi,|co- min- ci'a|3)di- let- ta-|re, sta|* fi- glia|sta, sta fi- glia|
 C4 z2 F2 | E2 A4 G2 | z2 F4 C2- | C2 F4 E2 | z2 D2 C2 D2 | E2 D4 ^C2 | D8 :| %21
w: sta, sta|1)fi- glia sta,|sta fi-|* glia sta,|che ti bi-|so- gna sta-|re.|
w: sta, sta|2)fi- glia sta,|sta fi-|* glia sta,|che ti bi-|so- gna sta-|re.|
w: |3) * *||||||
w: sta, sta|3)fi- glia sta,|sta fi-|* glia sta,|che ti bi-|so- gna sta-|re.|
V:3
 D4 A4- | A2 F2 c2 c2 | F6 C2 | D2 A2 D4 |[M:2/4] A4 :: z4 |[M:3/4] A2 G2 F2 |[M:4/4] E2 D2 z2 d2 | %8
w: 4)Ma la|* quar- ta sa-|ra tan-|ta gu- sto-|sa,||4)che da- *|* te, che|
w: 5)Stà dun-|* que sal- d'all'|a- mo-|ro- sa'im- pre-|sa,||5)e do- *|* po, e|
 c2 B2 A2 G2 | d4 A4 | e2 f2 e4 | A4 f4 | c4 d4 | G4 z2 f2 | e4 d4 | c2 f4 e2- | e2 d2 f2 F2 | %17
w: da- * * te,|la vo-|4)rai pro- va-|re, sta|fi- glia|sta, sta|fi- glia|4)sta, sta fi-|* glia sta, sta|
w: do- po que- sto'a-|mar il|5)dol- ce'as- pet-|to sta|fi- glia|sta, sta|fi- glia|5)sta, sta fi-|* glia sta, sta|
 F4 c4 |"^b""^b" F2 B2 A2 B2 | G2 G2 A4 | D8 :| %21
w: fi- glia|sta che ti bi-|so- gna sta-|re.|
w: fi- glia|sta che sei be-|* ne det-|ta.|

